assets/icons/Tilda_Icons_26snw_wh.svg

<?xml version="1.0" encoding="UTF-8"?>
<svg xmlns="http://www.w3.org/2000/svg" width="100" height="100" viewBox="0 0 100 100" fill="none"> <path fill-rule="evenodd" clip-rule="evenodd" d="M50.4832 23C57.7739 23.0027 64.6172 25.841 69.7626 30.9928C74.9089 36.1446 77.7408 42.9915 77.7363 50.2749C77.7299 65.301 65.5029 77.528 50.4823 77.528H50.4714C45.9107 77.5262 41.4282 76.3822 37.4477 74.2105L23 78L26.8668 63.8769C24.4823 59.7446 23.2274 55.0557 23.2292 50.2522C23.2346 35.2252 35.4616 23 50.4832 23ZM50.475 72.9246H50.4841C62.9693 72.9246 73.131 62.7629 73.1356 50.2713C73.1374 44.2183 70.7839 38.5272 66.5069 34.2457C62.23 29.9642 56.5426 27.6043 50.4923 27.6025C37.9979 27.6025 27.8353 37.7633 27.8308 50.2531C27.8289 54.5337 29.0266 58.7015 31.2938 62.3082L31.8322 63.1658L29.5441 71.525L38.118 69.2761L38.9455 69.7671C42.4231 71.8306 46.4099 72.9228 50.475 72.9246ZM58.2551 53.7435C58.8799 53.9708 62.2274 55.6178 62.9086 55.9588C63.0402 56.0247 63.1633 56.0843 63.2776 56.1395C63.7545 56.3701 64.0764 56.5258 64.2136 56.7554C64.3836 57.0392 64.3836 58.4033 63.8161 59.9938C63.2487 61.5844 60.5286 63.0358 59.22 63.2313C58.046 63.4068 56.5618 63.4796 54.9303 62.9612C53.9409 62.6475 52.6732 62.2291 51.0481 61.5271C44.6615 58.7691 40.3462 52.5782 39.5333 51.4121C39.4767 51.3309 39.4371 51.274 39.415 51.2444L39.4124 51.241C39.062 50.7748 36.634 47.544 36.634 44.2002C36.634 41.0648 38.1735 39.4213 38.8831 38.6637C38.9321 38.6113 38.9772 38.5632 39.0175 38.5191C39.6423 37.837 40.3798 37.667 40.8336 37.667C41.2874 37.667 41.7421 37.6706 42.1386 37.6906C42.1876 37.6931 42.2386 37.6928 42.2913 37.6924C42.6883 37.69 43.1828 37.6871 43.671 38.8592C43.8594 39.3119 44.1355 39.984 44.4265 40.6923C45.0118 42.1167 45.6572 43.6877 45.7708 43.9155C45.9409 44.2565 46.0545 44.654 45.8272 45.1087C45.7926 45.1776 45.7607 45.2427 45.7302 45.3049C45.56 45.6516 45.4345 45.9075 45.146 46.2445C45.0328 46.3768 44.9158 46.5194 44.7987 46.662C44.564 46.9478 44.3292 47.2338 44.1248 47.4376C43.7837 47.7769 43.4291 48.1452 43.8265 48.8272C44.2239 49.5084 45.5907 51.7382 47.6151 53.5443C49.7905 55.4855 51.6816 56.3056 52.6406 56.7216C52.8282 56.8029 52.9801 56.8688 53.0915 56.9246C53.7718 57.2656 54.1692 57.2092 54.5666 56.7545C54.964 56.2998 56.269 54.7666 56.7228 54.0845C57.1766 53.4024 57.6313 53.5161 58.2551 53.7435Z" fill="#31373E"/> <rect x="1" y="1" width="98" height="98" stroke="#31373E" stroke-width="2"/> </svg>

<svg xmlns="http://www.w3.org/2000/svg" width="100" height="100" fill="none"><path fill-rule="evenodd" clip-rule="evenodd" d="M50.483 23c7.29.003 14.134 2.841 19.28 7.993 5.146 5.152 7.978 11.999 7.973 19.282C77.73 65.3 65.503 77.528 50.482 77.528h-.01a27.228 27.228 0 0 1-13.024-3.318L23 78l3.867-14.123a27.208 27.208 0 0 1-3.638-13.625C23.235 35.225 35.462 23 50.483 23Zm-.008 49.925h.01c12.484 0 22.646-10.162 22.65-22.654a22.517 22.517 0 0 0-6.628-16.025 22.498 22.498 0 0 0-16.015-6.644c-12.494 0-22.657 10.161-22.661 22.651a22.598 22.598 0 0 0 3.463 12.055l.538.858-2.288 8.359 8.574-2.249.828.491a22.622 22.622 0 0 0 11.529 3.158Zm7.78-19.181c.625.227 3.972 1.874 4.654 2.215.131.066.254.125.369.18.477.231.798.387.936.616.17.284.17 1.648-.398 3.239-.567 1.59-3.287 3.042-4.596 3.237-1.174.176-2.658.249-4.29-.27a38.991 38.991 0 0 1-3.882-1.434c-6.387-2.758-10.702-8.949-11.515-10.115l-.118-.168-.003-.003c-.35-.466-2.778-3.697-2.778-7.04 0-3.136 1.54-4.78 2.25-5.537l.133-.145c.625-.682 1.363-.852 1.817-.852.453 0 .908.004 1.305.024.049.002.1.002.152.001.397-.002.892-.005 1.38 1.167.188.453.465 1.125.755 1.833.586 1.425 1.231 2.996 1.345 3.224.17.34.283.738.056 1.193l-.097.196c-.17.347-.295.602-.584.94-.113.132-.23.274-.347.417-.235.286-.47.572-.674.776-.341.339-.696.707-.298 1.39.397.68 1.764 2.91 3.788 4.716 2.175 1.942 4.067 2.762 5.026 3.178.187.08.34.147.45.203.68.34 1.078.284 1.476-.17.397-.455 1.702-1.988 2.156-2.67.454-.683.908-.569 1.532-.342Z" fill="#31373E"/><path stroke="#31373E" stroke-width="2" d="M1 1h98v98H1z"/></svg>
